vsi/squirrel_dark.svg

<svg viewBox="0 0 16 16" fill="none" xmlns="http://www.w3.org/2000/svg" height="1em" width="1em">
  <path fill-rule="evenodd" clip-rule="evenodd" d="M5.55808 2.64202C5.51696 2.63805 5.47578 2.63476 5.43455 2.63217C5.41748 2.56415 5.39552 2.49729 5.36879 2.43211C5.29488 2.25195 5.18592 2.08827 5.04822 1.95057C4.91052 1.81288 4.74684 1.70391 4.56668 1.63C4.38652 1.5561 4.19347 1.51872 3.99874 1.52005V2.82739C3.24174 3.12824 2.57169 3.61317 2.0493 4.2383C1.52556 4.86504 1.16687 5.61281 1.00587 6.41355V6.80339C1.46476 7.6402 2.91182 7.93433 3.1597 7.98471C3.18719 7.9903 3.19994 7.99289 3.19495 7.99289C0.775961 8.31276 1.00587 10.2419 1.00587 10.2419C1.0236 10.4947 1.1367 10.7314 1.32227 10.9039C1.50784 11.0765 1.75203 11.1722 2.00545 11.1716C2.2765 11.1535 2.54301 11.0928 2.79511 10.9916H4.85425C4.67577 11.3008 4.5539 11.6393 4.4944 11.9912H4.17454C3.56971 12.0824 3.01782 12.388 2.61961 12.8522C2.2214 13.3165 2.00341 13.9085 2.00545 14.5202C1.99704 14.5777 2.00066 14.6363 2.01607 14.6923C2.03149 14.7483 2.05838 14.8005 2.09502 14.8456C2.13166 14.8907 2.17727 14.9277 2.22896 14.9543C2.28064 14.9809 2.33728 14.9964 2.39528 15H9.07248C9.61565 15.0277 10.1584 14.9372 10.6632 14.7348C11.168 14.5324 11.6228 14.2228 11.9963 13.8274C12.3698 13.4321 12.6531 12.9604 12.8265 12.4449C12.9999 11.9294 13.0594 11.3824 13.0008 10.8417C12.974 10.0844 12.7119 9.35419 12.2512 8.75257L12.1412 8.61263C11.7114 8.06286 11.4615 7.70301 11.5914 7.32317C11.7214 6.94333 11.956 6.92334 11.956 6.92334C11.956 6.92334 12.1412 6.89335 12.4111 7.0133C12.6314 7.14132 12.8711 7.23248 13.1208 7.28319C13.3552 7.3275 13.5965 7.31814 13.8268 7.25582C14.0571 7.19349 14.2702 7.07982 14.4502 6.92334C14.6232 6.77291 14.7618 6.58706 14.8566 6.37838C14.9515 6.1697 15.0004 5.94307 15 5.71385C15.0059 4.99563 14.6695 4.25935 14.2751 3.6263C13.8808 2.99326 13.3497 2.4565 12.721 2.05538C11.9131 1.62378 10.9815 1.48263 10.0821 1.65555C9.44538 1.76761 8.8608 2.07915 8.41276 2.54517C8.05535 2.93495 7.78904 3.39929 7.63309 3.9046C7.44984 3.63238 7.23657 3.38194 6.99748 3.15793V2.9994C7.00019 2.61311 6.85067 2.24129 6.58128 1.96442C6.31189 1.68754 5.9443 1.52789 5.55808 1.52002V2.64202ZM10.8619 11.3808C10.9733 12.1224 11.0813 13.2023 9.99525 13.8227C9.69884 13.9264 9.38747 13.9832 9.07248 13.9904H3.21494C3.21413 13.7386 3.3084 13.4957 3.47889 13.3104C3.64939 13.1251 3.88354 13.0109 4.13455 12.9908H5.41402V12.491C5.40871 12.256 5.44975 12.0223 5.53479 11.8032C5.61984 11.5841 5.74722 11.3838 5.90967 11.214C6.07212 11.0441 6.26644 10.9079 6.48154 10.8132C6.66726 10.7313 6.86533 10.6818 7.06723 10.6665L6.44143 9.77855C6.20521 9.84573 5.97805 9.93175 5.86383 10.012H2.65517C2.56893 10.012 2.4796 10.0474 2.39082 10.0826C2.25324 10.137 2.11696 10.191 1.99545 10.112C1.79553 9.98206 2.1054 8.99247 3.00503 8.99247H4.00461C4.4944 8.99247 4.57437 8.4527 4.57437 8.4527L4.85425 7.32317C4.33991 7.39701 3.81548 7.35158 3.3215 7.19039C2.82753 7.0292 2.37724 6.75656 2.00545 6.39356C2.16456 5.66747 2.55801 5.01384 3.12518 4.53337C3.69234 4.05291 4.40176 3.77226 5.14413 3.73468C5.17312 3.73571 5.20092 3.73656 5.22781 3.73737C5.48831 3.74528 5.6627 3.75057 6.00377 3.9046C6.93338 4.32443 8.15287 6.37357 8.15287 6.37357L8.21284 6.46353H8.38277V6.39356C8.32288 5.95075 8.3627 4.93039 8.49932 4.50495C8.63595 4.0795 8.86593 3.68997 9.17244 3.36483C9.5247 3.01272 9.97976 2.78169 10.4719 2.70511C11.1062 2.56999 11.7681 2.67318 12.3311 2.99499C12.7917 3.27899 13.1814 3.66428 13.4707 4.12156C13.7599 4.57883 13.9466 4.95781 14.0059 5.49563C14.0048 5.51527 14.0062 5.54327 14.0079 5.57707C14.0151 5.71998 14.0275 5.96664 13.8799 6.12367C13.7531 6.25862 13.4321 6.35438 13.2107 6.3036C13.0524 6.26727 12.9007 6.20657 12.7609 6.12367C12.5927 6.01833 12.4031 5.95198 12.2059 5.9295C12.0087 5.90701 11.809 5.92896 11.6214 5.99373C11.3931 6.06736 11.1871 6.19766 11.0228 6.37246C10.8585 6.54727 10.7412 6.76087 10.6818 6.99331C10.5815 7.38979 10.5879 7.80573 10.7003 8.19896C10.8126 8.59219 11.0269 8.94871 11.3215 9.23237L11.4315 9.37231C11.7775 9.80567 11.977 10.3377 12.0013 10.8917C12.0146 11.288 11.9492 11.683 11.8088 12.0539C11.7749 12.1434 11.7368 12.2311 11.6947 12.3166C11.688 12.2368 11.6778 12.157 11.664 12.0776C11.5972 11.6941 11.4487 11.331 11.2304 11.0122L10.8619 11.3808ZM4.24 5C4.10739 5 3.98021 5.05268 3.88644 5.14645C3.79268 5.24021 3.74 5.36739 3.74 5.5C3.74 5.63261 3.79268 5.75979 3.88644 5.85355C3.98021 5.94732 4.10739 6 4.24 6C4.37261 6 4.49978 5.94732 4.59355 5.85355C4.68732 5.75979 4.74 5.63261 4.74 5.5C4.74 5.36739 4.68732 5.24021 4.59355 5.14645C4.49978 5.05268 4.37261 5 4.24 5Z" fill="#C5C5C5"/>
</svg>

<svg viewBox="0 0 16 16" fill="none" xmlns="http://www.w3.org/2000/svg" height="1em" width="1em">
  <path fill-rule="evenodd" clip-rule="evenodd" d="M5.558 2.642a3.698 3.698 0 0 0-.123-.01A1.47 1.47 0 0 0 3.999 1.52v1.307a4.898 4.898 0 0 0-2.993 3.587v.39c.459.836 1.906 1.13 2.154 1.18.027.006.04.009.035.009-2.419.32-2.19 2.249-2.19 2.249a1 1 0 0 0 1 .93c.272-.019.538-.08.79-.18h2.06a3 3 0 0 0-.36 1h-.32a2.55 2.55 0 0 0-2.17 2.528.42.42 0 0 0 .39.48h6.677a3.76 3.76 0 0 0 3.929-4.158 3.649 3.649 0 0 0-.75-2.09l-.11-.14c-.43-.55-.68-.909-.55-1.289.13-.38.365-.4.365-.4s.185-.03.455.09c.22.128.46.22.71.27a1.58 1.58 0 0 0 1.736-.905c.095-.208.143-.435.143-.664.006-.718-.33-1.455-.725-2.088a4.998 4.998 0 0 0-1.554-1.57 3.998 3.998 0 0 0-2.639-.4 3.049 3.049 0 0 0-1.67.89 3.56 3.56 0 0 0-.779 1.359 4.358 4.358 0 0 0-.636-.747v-.159A1.47 1.47 0 0 0 5.558 1.52v1.122Zm5.304 8.739c.111.741.22 1.821-.867 2.442-.296.103-.608.16-.923.167H3.215a1 1 0 0 1 .92-1h1.279v-.499a1.79 1.79 0 0 1 1.653-1.825l-.626-.887c-.236.067-.463.153-.577.233H2.655a.754.754 0 0 0-.264.07c-.138.055-.274.109-.396.03-.2-.13.11-1.12 1.01-1.12h1c.49 0 .57-.54.57-.54l.28-1.129a3.389 3.389 0 0 1-2.85-.93 3.389 3.389 0 0 1 3.14-2.658l.083.002c.26.008.435.014.776.168.93.42 2.149 2.469 2.149 2.469l.06.09h.17v-.07c-.06-.443-.02-1.464.116-1.89.137-.424.367-.814.673-1.14a2.349 2.349 0 0 1 1.3-.659 2.639 2.639 0 0 1 1.86.29c.46.284.85.67 1.139 1.127.289.457.476.836.535 1.374-.001.02 0 .047.002.081.007.143.02.39-.128.547-.127.135-.448.23-.67.18a1.57 1.57 0 0 1-.45-.18 1.33 1.33 0 0 0-1.139-.13 1.42 1.42 0 0 0-.94 1 2.318 2.318 0 0 0 .64 2.238l.11.14c.347.434.546.966.57 1.52a2.999 2.999 0 0 1-.306 1.425 2.708 2.708 0 0 0-.464-1.304l-.37.368ZM4.24 5a.5.5 0 1 0 0 1 .5.5 0 0 0 0-1Z" fill="#C5C5C5"/>
</svg>
